images/screens.svg

<svg xmlns="http://www.w3.org/2000/svg" width="239.3" height="225.8" viewBox="-394.6 307.1 239.3 225.8" enable-background="new -394.6 307.1 239.3 225.8"><style type="text/css">.st0{fill:#00B2E2;} .st1{fill:none;stroke:#FFFFFF;stroke-width:3.3249;stroke-miterlimit:10;} .st2{fill:none;stroke:#FFFFFF;stroke-width:3;stroke-miterlimit:10;} .st3{fill:none;stroke:#FFFFFF;stroke-width:2;stroke-miterlimit:10;} .st4{fill:none;stroke:#FFFFFF;stroke-width:2.4937;stroke-linecap:round;stroke-miterlimit:10;}</style><circle class="st0" cx="-275.7" cy="420" r="112.9"/><path class="st1" d="M-311.3 443.4h84.9m-105.3-55v-23.6c0-3.8 3.1-6.9 6.9-6.9h114.9c3.8 0 6.9 3.1 6.9 6.9v54.1m-23.4 18.7h-84.9m-13.3-49.2v-16.9c0-3.8 3.1-6.9 6.9-6.9h100.8c3.8 0 6.9 3.1 6.9 6.9v47.4"/><path class="st1" d="M-313.1 477.4h-51c-1 0-1.9-.8-1.9-1.9v-85.3c0-1 .8-1.9 1.9-1.9h51c1 0 1.9.8 1.9 1.9v85.3c-.1 1.1-.9 1.9-1.9 1.9z"/><path class="st2" d="M-319.2 463.3h-38.8c-.9 0-1.7-.8-1.7-1.7v-63.7c0-.9.8-1.7 1.7-1.7h38.8c.9 0 1.7.8 1.7 1.7v63.7c0 .9-.8 1.7-1.7 1.7z"/><path class="st1" d="M-192.2 477.4h-32.6c-.9 0-1.6-.7-1.6-1.6v-55.4c0-.9.7-1.6 1.6-1.6h32.6c.9 0 1.6.7 1.6 1.6v55.4c0 .9-.7 1.6-1.6 1.6z"/><path class="st2" d="M-196.2 464.7h-24.5c-.6 0-1.1-.5-1.1-1.1v-35.7c0-.6.5-1.1 1.1-1.1h24.5c.6 0 1.1.5 1.1 1.1v35.7c0 .6-.5 1.1-1.1 1.1z"/><circle class="st3" cx="-208.5" cy="471.2" r="2.5"/><circle class="st3" cx="-338.6" cy="470.6" r="2.5"/><path class="st1" d="M-257 443.4c2.8 8.4 9.1 26.8 9.1 28.7 0 3-2.4 5.4-5.4 5.4h-29.7c-3 0-5.4-2.4-5.4-5.4 0-2.7 7.4-24 8.7-28.2 0-.1.1-.2.1-.4"/><path class="st4" d="M-355.9 405.8l6.1-4.8m-6.2 12.1l14.1-12m123.9 34.1l5.6-4.5m-5.6 10.6l12-10.2m-110.7-50.9l10.3-8.3m15.2-.7l-20.3 18"/></svg>

<svg xmlns="http://www.w3.org/2000/svg" width="239.3" height="225.8" viewBox="-394.6 307.1 239.3 225.8" enable-background="new -394.6 307.1 239.3 225.8"><style type="text/css">.st0{fill:#00B2E2;} .st1{fill:none;stroke:#FFFFFF;stroke-width:3.3249;stroke-miterlimit:10;} .st2{fill:none;stroke:#FFFFFF;stroke-width:3;stroke-miterlimit:10;} .st3{fill:none;stroke:#FFFFFF;stroke-width:2;stroke-miterlimit:10;} .st4{fill:none;stroke:#FFFFFF;stroke-width:2.4937;stroke-linecap:round;stroke-miterlimit:10;}</style><circle class="st0" cx="-275.7" cy="420" r="112.9"/><path class="st1" d="M-311.3 443.4h84.9M-331.7 388.4v-23.6c0-3.8 3.1-6.9 6.9-6.9h114.9c3.8 0 6.9 3.1 6.9 6.9v54.1M-226.4 437.6h-84.9M-324.6 388.4v-16.9c0-3.8 3.1-6.9 6.9-6.9h100.8c3.8 0 6.9 3.1 6.9 6.9v47.4"/><path class="st1" d="M-313.1 477.4h-51c-1 0-1.9-.8-1.9-1.9v-85.3c0-1 .8-1.9 1.9-1.9h51c1 0 1.9.8 1.9 1.9v85.3c-.1 1.1-.9 1.9-1.9 1.9z"/><path class="st2" d="M-319.2 463.3h-38.8c-.9 0-1.7-.8-1.7-1.7v-63.7c0-.9.8-1.7 1.7-1.7h38.8c.9 0 1.7.8 1.7 1.7v63.7c0 .9-.8 1.7-1.7 1.7z"/><path class="st1" d="M-192.2 477.4h-32.6c-.9 0-1.6-.7-1.6-1.6v-55.4c0-.9.7-1.6 1.6-1.6h32.6c.9 0 1.6.7 1.6 1.6v55.4c0 .9-.7 1.6-1.6 1.6z"/><path class="st2" d="M-196.2 464.7h-24.5c-.6 0-1.1-.5-1.1-1.1v-35.7c0-.6.5-1.1 1.1-1.1h24.5c.6 0 1.1.5 1.1 1.1v35.7c0 .6-.5 1.1-1.1 1.1z"/><circle class="st3" cx="-208.5" cy="471.2" r="2.5"/><circle class="st3" cx="-338.6" cy="470.6" r="2.5"/><path class="st1" d="M-257 443.4c2.8 8.4 9.1 26.8 9.1 28.7 0 3-2.4 5.4-5.4 5.4h-29.7c-3 0-5.4-2.4-5.4-5.4 0-2.7 7.4-24 8.7-28.2 0-.1.1-.2.1-.4"/><path class="st4" d="M-355.9 405.8l6.1-4.8M-356 413.1l14.1-12M-218 435.2l5.6-4.5M-218 441.3l12-10.2M-316.7 380.2l10.3-8.3M-291.2 371.2l-20.3 18"/></svg>
